themes/asg/static/images/sponsors/avm.svg

<svg width="61" height="41" viewBox="0 0 61 41" fill="none" xmlns="http://www.w3.org/2000/svg">
<path d="M15.7892 22.2006C15.6018 22.7647 15.555 23.2347 15.555 23.5167V30.9902H21.5521V7.34766L0 30.9902H8.05859L15.1333 23.1407C15.5081 22.7177 15.8829 21.9656 15.7892 22.2006Z" fill="white"/>
<path d="M29.0474 17.1249C29.2348 16.5609 29.2816 16.0909 29.2816 15.8089V7.58331H23.5188V31.6959L52.005 0.48584H43.8059L29.7502 16.1849C29.3285 16.6079 28.9537 17.36 29.0474 17.1249Z" fill="white"/>
<path d="M49.3365 18.7234L60.909 6.07959V30.9912H54.6776V21.5906L43.5736 33.8584V21.4026L26.332 40.4859H18.1328L49.2896 6.3616V18.7234" fill="white"/>
</svg>

<svg width="61" height="41" fill="none" xmlns="http://www.w3.org/2000/svg"><path d="M15.79 22.2a4.303 4.303 0 0 0-.235 1.317v7.473h5.997V7.348L0 30.99h8.059l7.074-7.85c.375-.422.75-1.174.656-.94zm13.257-5.075a4.302 4.302 0 0 0 .235-1.316V7.583h-5.763v24.113L52.005.486h-8.2L29.75 16.185c-.422.423-.796 1.175-.703.94zm20.29 1.598L60.909 6.08v24.91h-6.231v-9.4L43.574 33.858V21.403L26.332 40.486h-8.2L49.29 6.362v12.361" fill="#fff"/></svg>
